Images/Graphics/PROFESSIONAL.svg

<svg width="428" height="82" viewBox="0 0 428 82" fill="none" xmlns="http://www.w3.org/2000/svg">
<rect x="2.96094" y="2.42615" width="422.999" height="76.735" rx="38.3675" stroke="#BDBDBD" stroke-width="4"/>
<path d="M50.2665 25.8028C52.9945 25.8028 55.3559 26.2574 57.3505 27.1668C59.3745 28.0761 60.9292 29.3668 62.0145 31.0388C63.0999 32.7108 63.6425 34.6908 63.6425 36.9788C63.6425 39.2374 63.0999 41.2174 62.0145 42.9188C60.9292 44.5908 59.3745 45.8814 57.3505 46.7908C55.3559 47.6708 52.9945 48.1108 50.2665 48.1108H44.0625V56.6028H36.9345V25.8028H50.2665ZM49.8705 42.3028C52.0119 42.3028 53.6399 41.8481 54.7545 40.9388C55.8692 40.0001 56.4265 38.6801 56.4265 36.9788C56.4265 35.2481 55.8692 33.9281 54.7545 33.0188C53.6399 32.0801 52.0119 31.6108 49.8705 31.6108H44.0625V42.3028H49.8705ZM88.3554 56.6028L82.4154 48.0228H82.0634H75.8594V56.6028H68.7314V25.8028H82.0634C84.7914 25.8028 87.1528 26.2574 89.1474 27.1668C91.1714 28.0761 92.7261 29.3668 93.8114 31.0388C94.8968 32.7108 95.4394 34.6908 95.4394 36.9788C95.4394 39.2668 94.8821 41.2468 93.7674 42.9188C92.6821 44.5614 91.1274 45.8228 89.1034 46.7028L96.0114 56.6028H88.3554ZM88.2234 36.9788C88.2234 35.2481 87.6661 33.9281 86.5514 33.0188C85.4368 32.0801 83.8088 31.6108 81.6674 31.6108H75.8594V42.3468H81.6674C83.8088 42.3468 85.4368 41.8774 86.5514 40.9388C87.6661 40.0001 88.2234 38.6801 88.2234 36.9788ZM116.003 57.1308C112.806 57.1308 109.916 56.4414 107.335 55.0628C104.783 53.6841 102.774 51.7921 101.307 49.3868C99.8696 46.9521 99.1509 44.2241 99.1509 41.2028C99.1509 38.1814 99.8696 35.4681 101.307 33.0628C102.774 30.6281 104.783 28.7214 107.335 27.3428C109.916 25.9641 112.806 25.2748 116.003 25.2748C119.2 25.2748 122.075 25.9641 124.627 27.3428C127.179 28.7214 129.188 30.6281 130.655 33.0628C132.122 35.4681 132.855 38.1814 132.855 41.2028C132.855 44.2241 132.122 46.9521 130.655 49.3868C129.188 51.7921 127.179 53.6841 124.627 55.0628C122.075 56.4414 119.2 57.1308 116.003 57.1308ZM116.003 51.0588C117.822 51.0588 119.464 50.6481 120.931 49.8268C122.398 48.9761 123.542 47.8028 124.363 46.3068C125.214 44.8108 125.639 43.1094 125.639 41.2028C125.639 39.2961 125.214 37.5948 124.363 36.0988C123.542 34.6028 122.398 33.4441 120.931 32.6228C119.464 31.7721 117.822 31.3468 116.003 31.3468C114.184 31.3468 112.542 31.7721 111.075 32.6228C109.608 33.4441 108.45 34.6028 107.599 36.0988C106.778 37.5948 106.367 39.2961 106.367 41.2028C106.367 43.1094 106.778 44.8108 107.599 46.3068C108.45 47.8028 109.608 48.9761 111.075 49.8268C112.542 50.6481 114.184 51.0588 116.003 51.0588ZM145.34 31.5228V39.6628H159.596V45.3828H145.34V56.6028H138.212V25.8028H161.488V31.5228H145.34ZM190.161 50.8828V56.6028H166.313V25.8028H189.589V31.5228H173.397V38.2108H187.697V43.7548H173.397V50.8828H190.161ZM205.953 57.1308C203.518 57.1308 201.157 56.8081 198.869 56.1628C196.61 55.4881 194.792 54.6228 193.413 53.5668L195.833 48.1988C197.153 49.1668 198.722 49.9441 200.541 50.5308C202.36 51.1174 204.178 51.4108 205.997 51.4108C208.021 51.4108 209.517 51.1174 210.485 50.5308C211.453 49.9148 211.937 49.1081 211.937 48.1108C211.937 47.3774 211.644 46.7761 211.057 46.3068C210.5 45.8081 209.766 45.4121 208.857 45.1188C207.977 44.8254 206.774 44.5028 205.249 44.1508C202.902 43.5934 200.981 43.0361 199.485 42.4788C197.989 41.9214 196.698 41.0268 195.613 39.7948C194.557 38.5628 194.029 36.9201 194.029 34.8668C194.029 33.0774 194.513 31.4641 195.481 30.0268C196.449 28.5601 197.901 27.4014 199.837 26.5508C201.802 25.7001 204.193 25.2748 207.009 25.2748C208.974 25.2748 210.896 25.5094 212.773 25.9788C214.65 26.4481 216.293 27.1228 217.701 28.0028L215.501 33.4148C212.656 31.8014 209.81 30.9948 206.965 30.9948C204.97 30.9948 203.489 31.3174 202.521 31.9628C201.582 32.6081 201.113 33.4588 201.113 34.5148C201.113 35.5708 201.656 36.3628 202.741 36.8908C203.856 37.3894 205.542 37.8881 207.801 38.3868C210.148 38.9441 212.069 39.5014 213.565 40.0588C215.061 40.6161 216.337 41.4961 217.393 42.6988C218.478 43.9014 219.021 45.5294 219.021 47.5828C219.021 49.3428 218.522 50.9561 217.525 52.4228C216.557 53.8601 215.09 55.0041 213.125 55.8548C211.16 56.7054 208.769 57.1308 205.953 57.1308ZM234.012 57.1308C231.577 57.1308 229.216 56.8081 226.928 56.1628C224.669 55.4881 222.85 54.6228 221.472 53.5668L223.892 48.1988C225.212 49.1668 226.781 49.9441 228.6 50.5308C230.418 51.1174 232.237 51.4108 234.056 51.4108C236.08 51.4108 237.576 51.1174 238.544 50.5308C239.512 49.9148 239.996 49.1081 239.996 48.1108C239.996 47.3774 239.702 46.7761 239.116 46.3068C238.558 45.8081 237.825 45.4121 236.916 45.1188C236.036 44.8254 234.833 44.5028 233.308 44.1508C230.961 43.5934 229.04 43.0361 227.544 42.4788C226.048 41.9214 224.757 41.0268 223.672 39.7948C222.616 38.5628 222.088 36.9201 222.088 34.8668C222.088 33.0774 222.572 31.4641 223.54 30.0268C224.508 28.5601 225.96 27.4014 227.896 26.5508C229.861 25.7001 232.252 25.2748 235.068 25.2748C237.033 25.2748 238.954 25.5094 240.832 25.9788C242.709 26.4481 244.352 27.1228 245.76 28.0028L243.56 33.4148C240.714 31.8014 237.869 30.9948 235.024 30.9948C233.029 30.9948 231.548 31.3174 230.58 31.9628C229.641 32.6081 229.172 33.4588 229.172 34.5148C229.172 35.5708 229.714 36.3628 230.8 36.8908C231.914 37.3894 233.601 37.8881 235.86 38.3868C238.206 38.9441 240.128 39.5014 241.624 40.0588C243.12 40.6161 244.396 41.4961 245.452 42.6988C246.537 43.9014 247.08 45.5294 247.08 47.5828C247.08 49.3428 246.581 50.9561 245.584 52.4228C244.616 53.8601 243.149 55.0041 241.184 55.8548C239.218 56.7054 236.828 57.1308 234.012 57.1308ZM251.95 25.8028H259.078V56.6028H251.95V25.8028ZM281.304 57.1308C278.106 57.1308 275.217 56.4414 272.636 55.0628C270.084 53.6841 268.074 51.7921 266.608 49.3868C265.17 46.9521 264.452 44.2241 264.452 41.2028C264.452 38.1814 265.17 35.4681 266.608 33.0628C268.074 30.6281 270.084 28.7214 272.636 27.3428C275.217 25.9641 278.106 25.2748 281.304 25.2748C284.501 25.2748 287.376 25.9641 289.928 27.3428C292.48 28.7214 294.489 30.6281 295.956 33.0628C297.422 35.4681 298.156 38.1814 298.156 41.2028C298.156 44.2241 297.422 46.9521 295.956 49.3868C294.489 51.7921 292.48 53.6841 289.928 55.0628C287.376 56.4414 284.501 57.1308 281.304 57.1308ZM281.304 51.0588C283.122 51.0588 284.765 50.6481 286.232 49.8268C287.698 48.9761 288.842 47.8028 289.664 46.3068C290.514 44.8108 290.94 43.1094 290.94 41.2028C290.94 39.2961 290.514 37.5948 289.664 36.0988C288.842 34.6028 287.698 33.4441 286.232 32.6228C284.765 31.7721 283.122 31.3468 281.304 31.3468C279.485 31.3468 277.842 31.7721 276.376 32.6228C274.909 33.4441 273.75 34.6028 272.9 36.0988C272.078 37.5948 271.668 39.2961 271.668 41.2028C271.668 43.1094 272.078 44.8108 272.9 46.3068C273.75 47.8028 274.909 48.9761 276.376 49.8268C277.842 50.6481 279.485 51.0588 281.304 51.0588ZM331.761 25.8028V56.6028H325.909L310.553 37.9028V56.6028H303.513V25.8028H309.409L324.721 44.5028V25.8028H331.761ZM359.332 50.0028H345.032L342.304 56.6028H335L348.728 25.8028H355.768L369.54 56.6028H362.06L359.332 50.0028ZM357.088 44.5908L352.204 32.7988L347.32 44.5908H357.088ZM372.735 25.8028H379.863V50.7948H395.307V56.6028H372.735V25.8028Z" fill="#BDBDBD"/>
</svg>

<svg width="428" height="82" fill="none" xmlns="http://www.w3.org/2000/svg"><rect x="2.961" y="2.426" width="422.999" height="76.735" rx="38.367" stroke="#BDBDBD" stroke-width="4"/><path d="M50.267 25.803c2.727 0 5.089.454 7.083 1.364 2.024.91 3.58 2.2 4.664 3.872 1.086 1.672 1.628 3.652 1.628 5.94 0 2.258-.542 4.238-1.628 5.94-1.085 1.672-2.64 2.962-4.664 3.872-1.994.88-4.355 1.32-7.084 1.32h-6.203v8.492h-7.129v-30.8h13.333Zm-.397 16.5c2.142 0 3.77-.455 4.885-1.364 1.114-.939 1.671-2.259 1.671-3.96 0-1.73-.557-3.05-1.672-3.96-1.114-.939-2.742-1.408-4.883-1.408h-5.809v10.692h5.809Zm38.485 14.3-5.94-8.58H75.86v8.58h-7.128v-30.8h13.332c2.728 0 5.09.454 7.084 1.364 2.024.91 3.58 2.2 4.664 3.872 1.086 1.672 1.628 3.652 1.628 5.94 0 2.288-.557 4.268-1.672 5.94-1.085 1.642-2.64 2.904-4.664 3.784l6.908 9.9h-7.656Zm-.132-19.624c0-1.73-.557-3.05-1.672-3.96-1.114-.939-2.742-1.408-4.884-1.408H75.86v10.736h5.808c2.142 0 3.77-.47 4.884-1.408 1.115-.939 1.672-2.259 1.672-3.96Zm27.78 20.152c-3.197 0-6.087-.69-8.668-2.068-2.552-1.379-4.561-3.27-6.028-5.676-1.437-2.435-2.156-5.163-2.156-8.184 0-3.022.719-5.735 2.156-8.14 1.467-2.435 3.476-4.342 6.028-5.72 2.581-1.379 5.471-2.068 8.668-2.068 3.197 0 6.072.69 8.624 2.068 2.552 1.378 4.561 3.285 6.028 5.72 1.467 2.405 2.2 5.118 2.2 8.14 0 3.021-.733 5.75-2.2 8.184-1.467 2.405-3.476 4.297-6.028 5.676-2.552 1.378-5.427 2.068-8.624 2.068Zm0-6.072c1.819 0 3.461-.41 4.928-1.232a8.995 8.995 0 0 0 3.432-3.52c.851-1.496 1.276-3.198 1.276-5.104 0-1.907-.425-3.608-1.276-5.104a8.693 8.693 0 0 0-3.432-3.476c-1.467-.85-3.109-1.276-4.928-1.276s-3.461.425-4.928 1.276c-1.467.821-2.625 1.98-3.476 3.476-.821 1.496-1.232 3.197-1.232 5.104 0 1.906.411 3.608 1.232 5.104a9.315 9.315 0 0 0 3.476 3.52c1.467.821 3.109 1.232 4.928 1.232Zm29.337-19.536v8.14h14.256v5.72H145.34v11.22h-7.128v-30.8h23.276v5.72H145.34Zm44.821 19.36v5.72h-23.848v-30.8h23.276v5.72h-16.192v6.688h14.3v5.544h-14.3v7.128h16.764Zm15.792 6.248a25.97 25.97 0 0 1-7.084-.968c-2.259-.675-4.077-1.54-5.456-2.596l2.42-5.368c1.32.968 2.889 1.745 4.708 2.332 1.819.586 3.637.88 5.456.88 2.024 0 3.52-.294 4.488-.88.968-.616 1.452-1.423 1.452-2.42 0-.734-.293-1.335-.88-1.804-.557-.499-1.291-.895-2.2-1.188-.88-.294-2.083-.616-3.608-.968-2.347-.558-4.268-1.115-5.764-1.672a9.53 9.53 0 0 1-3.872-2.684c-1.056-1.232-1.584-2.875-1.584-4.928 0-1.79.484-3.403 1.452-4.84.968-1.467 2.42-2.626 4.356-3.476 1.965-.85 4.356-1.276 7.172-1.276 1.965 0 3.887.234 5.764.704 1.877.47 3.52 1.144 4.928 2.024l-2.2 5.412c-2.845-1.614-5.691-2.42-8.536-2.42-1.995 0-3.476.322-4.444.968-.939.645-1.408 1.496-1.408 2.552s.543 1.848 1.628 2.376c1.115.498 2.801.997 5.06 1.496 2.347.557 4.268 1.114 5.764 1.672a9.374 9.374 0 0 1 3.828 2.64c1.085 1.202 1.628 2.83 1.628 4.884 0 1.76-.499 3.373-1.496 4.84-.968 1.437-2.435 2.581-4.4 3.432-1.965.85-4.356 1.276-7.172 1.276Zm28.059 0a25.97 25.97 0 0 1-7.084-.968c-2.259-.675-4.078-1.54-5.456-2.596l2.42-5.368c1.32.968 2.889 1.745 4.708 2.332a17.68 17.68 0 0 0 5.456.88c2.024 0 3.52-.294 4.488-.88.968-.616 1.452-1.423 1.452-2.42 0-.734-.294-1.335-.88-1.804-.558-.499-1.291-.895-2.2-1.188-.88-.294-2.083-.616-3.608-.968-2.347-.558-4.268-1.115-5.764-1.672a9.53 9.53 0 0 1-3.872-2.684c-1.056-1.232-1.584-2.875-1.584-4.928 0-1.79.484-3.403 1.452-4.84.968-1.467 2.42-2.626 4.356-3.476 1.965-.85 4.356-1.276 7.172-1.276 1.965 0 3.886.234 5.764.704 1.877.47 3.52 1.144 4.928 2.024l-2.2 5.412c-2.846-1.614-5.691-2.42-8.536-2.42-1.995 0-3.476.322-4.444.968-.939.645-1.408 1.496-1.408 2.552s.542 1.848 1.628 2.376c1.114.498 2.801.997 5.06 1.496 2.346.557 4.268 1.114 5.764 1.672a9.374 9.374 0 0 1 3.828 2.64c1.085 1.202 1.628 2.83 1.628 4.884 0 1.76-.499 3.373-1.496 4.84-.968 1.437-2.435 2.581-4.4 3.432-1.966.85-4.356 1.276-7.172 1.276Zm17.938-31.328h7.128v30.8h-7.128v-30.8Zm29.354 31.328c-3.198 0-6.087-.69-8.668-2.068-2.552-1.379-4.562-3.27-6.028-5.676-1.438-2.435-2.156-5.163-2.156-8.184 0-3.022.718-5.735 2.156-8.14 1.466-2.435 3.476-4.342 6.028-5.72 2.581-1.379 5.47-2.068 8.668-2.068 3.197 0 6.072.69 8.624 2.068 2.552 1.378 4.561 3.285 6.028 5.72 1.466 2.405 2.2 5.118 2.2 8.14 0 3.021-.734 5.75-2.2 8.184-1.467 2.405-3.476 4.297-6.028 5.676-2.552 1.378-5.427 2.068-8.624 2.068Zm0-6.072c1.818 0 3.461-.41 4.928-1.232a9.009 9.009 0 0 0 3.432-3.52c.85-1.496 1.276-3.198 1.276-5.104 0-1.907-.426-3.608-1.276-5.104a8.706 8.706 0 0 0-3.432-3.476c-1.467-.85-3.11-1.276-4.928-1.276-1.819 0-3.462.425-4.928 1.276-1.467.821-2.626 1.98-3.476 3.476-.822 1.496-1.232 3.197-1.232 5.104 0 1.906.41 3.608 1.232 5.104a9.308 9.308 0 0 0 3.476 3.52c1.466.821 3.109 1.232 4.928 1.232Zm50.457-25.256v30.8h-5.852l-15.356-18.7v18.7h-7.04v-30.8h5.896l15.312 18.7v-18.7h7.04Zm27.571 24.2h-14.3l-2.728 6.6H335l13.728-30.8h7.04l13.772 30.8h-7.48l-2.728-6.6Zm-2.244-5.412-4.884-11.792-4.884 11.792h9.768Zm15.647-18.788h7.128v24.992h15.444v5.808h-22.572v-30.8Z" fill="#BDBDBD"/></svg>
